testing/Canon EOS RP/fit-hybrid/out/EOS RP Lightroom match.cube
TITLE "EOS RP -> Lightroom match (hybrid segment fit; obj 5.23 in 1.37 loo 8.07)"
LUT_3D_SIZE 9
0.011091 0.006570 0.012517
0.149834 0.017775 0.015491
0.334322 0.003374 0.016518
0.482614 0.000034 0.023387
0.581658 0.003405 0.030759
0.685963 0.010457 0.032658
0.795756 0.007638 0.035192
0.889690 0.000000 0.033909
1.000000 0.004153 0.013300
0.000000 0.136996 0.015148
0.108671 0.102382 0.046917
0.257912 0.153744 0.072712
0.415809 0.132376 0.043686
0.556770 0.095465 0.026593
0.695884 0.075250 0.038621
0.814651 0.072458 0.049256
0.909770 0.093773 0.012412
1.000000 0.134764 0.013197
0.000000 0.283305 0.024655
0.057518 0.211888 0.040511
0.190573 0.229636 0.067729
0.388023 0.269247 0.132614
0.542793 0.249593 0.068413
0.690775 0.220838 0.038134
0.815943 0.221169 0.021076
0.897682 0.239524 0.008719
0.997894 0.275187 0.021910
0.000000 0.432485 0.060451
0.039959 0.396732 0.018535
0.148161 0.318313 0.068211
0.225871 0.318310 0.083929
0.556050 0.398113 0.156190
0.691161 0.380986 0.058355
0.809893 0.374801 0.020657
0.898062 0.383017 0.013283
0.992148 0.422774 0.041516
0.000000 0.555813 0.018388
0.052564 0.542585 0.004984
0.110124 0.543983 0.006834
0.268704 0.448500 0.067961
0.342583 0.465784 0.060319
0.675138 0.526125 0.076037
0.801395 0.522445 0.016622
0.907916 0.539041 0.004921
0.989500 0.553916 0.022048
0.000000 0.658625 0.112445
0.007086 0.682161 0.031184
0.165203 0.679161 0.028902
0.377392 0.692061 0.025114
0.462224 0.623552 0.030553
0.534097 0.637821 0.062329
0.805235 0.682943 0.019123
0.908232 0.674191 0.008094
0.996993 0.662800 0.074635
0.000000 0.730261 0.220889
0.168532 0.778833 0.003403
0.288735 0.792719 0.069461
0.476433 0.804232 0.063739
0.642304 0.819627 0.029629
0.728331 0.814118 0.017470
0.748384 0.822963 0.099790
0.923736 0.819305 0.032068
1.000000 0.751376 0.157570
0.084033 0.764143 0.459198
0.199918 0.855907 0.218274
0.379832 0.843688 0.305208
0.482186 0.855714 0.335509
0.622012 0.861465 0.402180
0.744505 0.874508 0.394755
0.862697 0.892738 0.308492
0.907188 0.924799 0.282445
1.000000 0.809065 0.349637
0.098835 0.969373 0.145083
0.146984 1.000000 0.011109
0.336023 0.997972 0.046730
0.462288 0.999937 0.020571
0.578330 0.999900 0.070219
0.682524 1.000000 0.071478
0.793793 1.000000 0.071103
0.880365 1.000000 0.020032
1.000000 0.986466 0.066062
0.001910 0.021231 0.177470
0.192005 0.018970 0.138915
0.344386 0.020326 0.134786
0.494165 0.005414 0.128397
0.599467 0.005701 0.128958
0.694108 0.000356 0.126523
0.810005 0.000000 0.128741
0.881907 0.000108 0.125225
0.994700 0.016159 0.168582
0.004124 0.151925 0.188578
0.146047 0.145454 0.156307
0.266208 0.151268 0.146166
0.406897 0.147841 0.149587
0.535102 0.118808 0.135951
0.665084 0.102648 0.137773
0.754542 0.123668 0.127715
0.875120 0.124977 0.125081
1.000000 0.148176 0.180052
0.000000 0.286718 0.203231
0.117997 0.256392 0.170596
0.227008 0.213750 0.159204
0.353792 0.247364 0.175337
0.466711 0.222382 0.142395
0.647105 0.221434 0.130403
0.779244 0.242243 0.133064
0.899043 0.248168 0.139630
0.999846 0.283489 0.196436
0.000000 0.417801 0.214281
0.063524 0.396594 0.170969
0.186587 0.311100 0.165233
0.295015 0.328273 0.204808
0.534845 0.405541 0.246578
0.668945 0.396314 0.203099
0.784012 0.370946 0.135703
0.889871 0.379252 0.139544
1.000000 0.412963 0.204775
0.000000 0.526830 0.238764
0.056697 0.524316 0.164924
0.191884 0.510170 0.174316
0.284599 0.444817 0.184228
0.384998 0.462324 0.185488
0.678783 0.534301 0.298347
0.804190 0.531475 0.214805
0.888049 0.510409 0.144902
0.998677 0.524090 0.235067
0.000000 0.631453 0.266057
0.124973 0.625014 0.125047
0.249570 0.625208 0.125432
0.319193 0.597674 0.164116
0.405957 0.584796 0.191537
0.537569 0.625974 0.206224
0.809251 0.662170 0.244082
0.924288 0.655413 0.223076
0.999959 0.630754 0.263455
0.000472 0.736755 0.288876
0.122835 0.751797 0.166017
0.250086 0.750409 0.131567
0.383106 0.755311 0.173041
0.544091 0.774456 0.235932
0.615263 0.771533 0.230755
0.732890 0.797478 0.271128
0.906240 0.777485 0.206068
0.998221 0.752857 0.168990
0.114913 0.828488 0.328547
0.125004 0.874999 0.125009
0.250111 0.874978 0.125262
0.376407 0.874741 0.128387
0.500074 0.875019 0.125224
0.625076 0.875070 0.125348
0.755248 0.915200 0.254907
0.892585 0.930255 0.296629
1.000000 0.875937 0.219787
0.001967 1.000000 0.166224
0.186377 1.000000 0.138156
0.335533 1.000000 0.133655
0.471324 1.000000 0.127731
0.581408 1.000000 0.128211
0.648413 1.000000 0.125488
0.794558 1.000000 0.127854
0.876337 1.000000 0.126053
0.997826 1.000000 0.141451
0.004254 0.040417 0.337194
0.212790 0.035290 0.305830
0.369460 0.033724 0.283912
0.515717 0.037101 0.261144
0.620938 0.025648 0.250971
0.709852 0.008283 0.246451
0.805076 0.003239 0.245407
0.884260 0.043273 0.247561
0.992682 0.034356 0.323802
0.007594 0.172838 0.333660
0.161045 0.165071 0.296972
0.301520 0.171128 0.292910
0.444654 0.162520 0.269467
0.568825 0.149721 0.255279
0.627624 0.124722 0.250109
0.802571 0.126201 0.247827
0.875010 0.125008 0.250000
1.000000 0.168074 0.325524
0.000905 0.291714 0.344643
0.142385 0.275941 0.302398
0.270420 0.269135 0.280729
0.406357 0.277693 0.274991
0.495165 0.230267 0.242750
0.654637 0.238824 0.249506
0.791566 0.240725 0.244725
0.875904 0.250030 0.250359
1.000000 0.286824 0.333761
0.000000 0.415768 0.345196
0.074077 0.405948 0.302798
0.233173 0.385536 0.292810
0.358119 0.351193 0.295302
0.454226 0.316653 0.233814
0.612274 0.322152 0.229825
0.782895 0.360533 0.245785
0.902124 0.383359 0.257629
0.999932 0.411388 0.334965
0.000000 0.523525 0.362681
0.120674 0.503439 0.259435
0.224011 0.531613 0.309576
0.308669 0.459161 0.282458
0.403328 0.455632 0.292616
0.703137 0.542957 0.358914
0.809688 0.523506 0.298457
0.886255 0.518551 0.265973
0.990638 0.524877 0.321528
0.000000 0.625810 0.399349
0.115298 0.628091 0.257571
0.178895 0.657851 0.319615
0.361295 0.660928 0.309154
0.428337 0.588400 0.295808
0.524934 0.616340 0.319126
0.831165 0.677809 0.418253
0.953300 0.680919 0.401046
0.998737 0.626833 0.388214
0.000644 0.712498 0.468928
0.126256 0.751586 0.277016
0.250124 0.750152 0.252630
0.376323 0.750481 0.258655
0.508674 0.753604 0.280031
0.597872 0.756820 0.330174
0.726580 0.796350 0.366055
0.937439 0.789688 0.400441
1.000000 0.723017 0.444791
0.051425 0.822111 0.426672
0.125001 0.874999 0.250003
0.251386 0.874743 0.253311
0.391217 0.872040 0.289260
0.504714 0.875253 0.267064
0.637204 0.878595 0.290122
0.761119 0.913671 0.360617
0.895241 0.926213 0.398711
1.000000 0.880897 0.366350
0.005112 1.000000 0.324825
0.203244 1.000000 0.299868
0.357647 1.000000 0.280265
0.487873 1.000000 0.259077
0.598160 1.000000 0.251039
0.653814 1.000000 0.248673
0.767802 1.000000 0.248516
0.879871 1.000000 0.250723
0.994329 1.000000 0.304473
0.032698 0.073223 0.507590
0.225290 0.056101 0.457734
0.386275 0.048854 0.447407
0.533608 0.040179 0.426680
0.648469 0.039877 0.400480
0.746902 0.018570 0.392211
0.839339 0.028692 0.380740
0.897585 0.001819 0.361092
1.000000 0.064765 0.479223
0.001203 0.184370 0.477541
0.157213 0.170609 0.437120
0.297744 0.178237 0.436466
0.446553 0.169584 0.422085
0.573194 0.161262 0.403154
0.636748 0.129129 0.378502
0.750457 0.125070 0.375000
0.875936 0.125599 0.375194
0.990521 0.175162 0.461913
0.002418 0.291793 0.481680
0.141533 0.281869 0.438698
0.281330 0.285926 0.431705
0.434090 0.289367 0.430753
0.572464 0.275142 0.408930
0.674367 0.259353 0.388799
0.753548 0.250528 0.375340
0.879365 0.249734 0.376367
1.000000 0.266839 0.417257
0.000000 0.415948 0.494812
0.094931 0.408792 0.443925
0.259403 0.407113 0.439910
0.400316 0.411736 0.436344
0.544797 0.403913 0.411503
0.638385 0.348393 0.365604
0.792146 0.367652 0.379195
0.883232 0.377657 0.376116
0.998858 0.408490 0.473348
0.000000 0.525693 0.496185
0.081623 0.529489 0.444130
0.231766 0.539113 0.445778
0.383479 0.535941 0.447543
0.529706 0.499680 0.440679
0.622229 0.458499 0.368245
0.770539 0.483555 0.383924
0.899600 0.521795 0.389492
0.999692 0.522463 0.477596
0.000000 0.622623 0.505871
0.123242 0.625538 0.376999
0.223614 0.637051 0.409995
0.375554 0.663167 0.457574
0.462892 0.596091 0.417786
0.548426 0.601017 0.426479
0.855925 0.684956 0.496910
0.906530 0.671522 0.420577
0.994676 0.630601 0.481337
0.000482 0.700599 0.543841
0.137552 0.757056 0.487689
0.250078 0.750657 0.379504
0.391458 0.772174 0.477308
0.532760 0.784527 0.467725
0.616323 0.752549 0.447589
0.726494 0.787303 0.467691
0.960697 0.814366 0.554072
1.000000 0.711580 0.541431
0.135799 0.806682 0.568906
0.125027 0.874989 0.375052
0.250096 0.874996 0.375213
0.375457 0.875085 0.377214
0.528891 0.870550 0.458949
0.673005 0.877354 0.601958
0.791170 0.897141 0.539794
0.912681 0.939316 0.539733
1.000000 0.858857 0.536432
0.033044 1.000000 0.482323
0.216092 1.000000 0.448873
0.373031 1.000000 0.439171
0.515499 1.000000 0.420071
0.615041 1.000000 0.397056
0.734043 1.000000 0.390439
0.823082 1.000000 0.379928
0.894252 1.000000 0.366111
1.000000 1.000000 0.402354
0.088998 0.060477 0.637783
0.281642 0.047594 0.595247
0.416596 0.054194 0.589262
0.552006 0.045203 0.579815
0.648877 0.033467 0.559248
0.771090 0.026994 0.556225
0.863746 0.023987 0.543000
0.904136 0.017522 0.529783
1.000000 0.049362 0.605672
0.021012 0.204483 0.622420
0.156770 0.173247 0.567162
0.300302 0.173459 0.562356
0.445272 0.177611 0.557359
0.589360 0.187027 0.553991
0.700029 0.175570 0.535396
0.752498 0.126814 0.500986
0.886031 0.132348 0.502493
1.000000 0.190637 0.601674
0.000000 0.309348 0.614927
0.144786 0.287892 0.559774
0.286270 0.301133 0.568423
0.435915 0.304905 0.565842
0.573499 0.303654 0.556205
0.691070 0.287336 0.540654
0.807812 0.273653 0.524999
0.893795 0.268406 0.525209
0.991253 0.296213 0.597122
0.000000 0.425797 0.622751
0.121688 0.396255 0.539033
0.266365 0.429630 0.629605
0.410002 0.426679 0.577219
0.568868 0.424245 0.565251
0.695453 0.417202 0.554899
0.812338 0.392939 0.528994
0.878054 0.372837 0.512169
0.998949 0.418586 0.608057
0.000000 0.523303 0.599485
0.085443 0.529768 0.564297
0.241151 0.540636 0.584720
0.398745 0.547749 0.591199
0.528943 0.530477 0.549418
0.661380 0.542252 0.562961
0.794195 0.514461 0.530444
0.908393 0.517703 0.523566
0.997027 0.510213 0.543992
0.000000 0.618100 0.611203
0.124096 0.625610 0.501889
0.227343 0.657216 0.591906
0.380765 0.666007 0.585591
0.530760 0.662650 0.584917
0.667939 0.652764 0.605612
0.779730 0.627729 0.542432
0.890475 0.654465 0.543536
0.999835 0.623866 0.597447
0.004024 0.695325 0.612933
0.175568 0.761533 0.600252
0.251967 0.750359 0.504662
0.397765 0.779565 0.621029
0.541439 0.781552 0.633727
0.652751 0.766797 0.594874
0.735212 0.770140 0.594423
0.942384 0.826438 0.683045
1.000000 0.706928 0.608813
0.183022 0.795790 0.637194
0.125042 0.874988 0.500042
0.329849 0.864013 0.591225
0.385786 0.873720 0.513710
0.515047 0.876528 0.544745
0.684412 0.868528 0.730760
0.788776 0.881660 0.703342
0.909481 0.940320 0.660058
1.000000 0.857545 0.629620
0.096207 1.000000 0.630995
0.254175 1.000000 0.578488
0.397691 1.000000 0.578933
0.533135 1.000000 0.571520
0.563180 1.000000 0.525246
0.743737 1.000000 0.546748
0.842797 1.000000 0.536245
0.905052 1.000000 0.543188
1.000000 1.000000 0.588535
0.201725 0.060979 0.790068
0.389006 0.066294 0.747520
0.506802 0.025671 0.735708
0.602612 0.033354 0.719591
0.718225 0.047665 0.712913
0.827983 0.046909 0.704190
0.890383 0.038310 0.696781
0.905542 0.045006 0.687400
1.000000 0.060745 0.744466
0.004751 0.206667 0.725131
0.141814 0.139060 0.639566
0.269537 0.144797 0.639548
0.447175 0.196988 0.665447
0.505073 0.129168 0.627580
0.635287 0.133819 0.631156
0.833334 0.202690 0.668319
0.893974 0.195819 0.667365
1.000000 0.192032 0.706934
0.003407 0.336148 0.730962
0.128902 0.254021 0.628682
0.303789 0.322730 0.705717
0.450441 0.323827 0.689919
0.591437 0.326653 0.691752
0.716936 0.324812 0.682573
0.797849 0.285041 0.653419
0.878200 0.264263 0.637769
1.000000 0.321166 0.712133
0.007753 0.428783 0.706920
0.129658 0.407222 0.673084
0.275650 0.436414 0.699114
0.401077 0.442069 0.699022
0.567355 0.435344 0.686908
0.704845 0.435124 0.686217
0.819884 0.422424 0.673943
0.900876 0.402594 0.664886
1.000000 0.394635 0.655473
0.000000 0.533738 0.707594
0.117575 0.532346 0.671412
0.258884 0.540594 0.677100
0.423488 0.573922 0.720326
0.550489 0.580331 0.715446
0.698938 0.559323 0.702842
0.820362 0.538999 0.681779
0.890177 0.519383 0.663455
0.998017 0.528023 0.693378
0.000000 0.627421 0.712028
0.130678 0.634296 0.646536
0.259187 0.659325 0.695202
0.400547 0.672846 0.715332
0.573458 0.683571 0.734395
0.704925 0.715724 0.740910
0.803300 0.684974 0.707864
0.898684 0.653608 0.669034
0.995612 0.631178 0.707908
0.022774 0.698181 0.702405
0.206966 0.763551 0.697915
0.307228 0.756658 0.694842
0.410458 0.778868 0.715696
0.545418 0.779179 0.730354
0.675185 0.798814 0.731821
0.807581 0.795950 0.748734
0.916248 0.812568 0.749627
1.000000 0.717571 0.703350
0.209879 0.791552 0.712087
0.125066 0.874982 0.625033
0.402870 0.858965 0.719538
0.391433 0.875096 0.645083
0.552879 0.874267 0.714464
0.678099 0.878061 0.760212
0.791055 0.895025 0.750517
0.912633 0.944246 0.761946
1.000000 0.816078 0.725797
0.156848 1.000000 0.755379
0.357106 1.000000 0.732164
0.477954 1.000000 0.723265
0.580355 1.000000 0.709915
0.694780 1.000000 0.703410
0.803889 1.000000 0.695907
0.864116 1.000000 0.682997
0.906237 1.000000 0.694842
1.000000 1.000000 0.732311
0.424487 0.065963 0.900270
0.217177 0.010658 0.773251
0.606835 0.057044 0.856503
0.643651 0.032834 0.832319
0.776307 0.036762 0.835929
0.846584 0.047809 0.828728
0.892058 0.113088 0.830328
0.902805 0.065695 0.829725
1.000000 0.070879 0.852736
0.159844 0.272109 0.816841
0.125013 0.125012 0.750008
0.250226 0.125073 0.750076
0.408450 0.162765 0.763020
0.592280 0.225959 0.789738
0.736651 0.267430 0.794565
0.776483 0.180755 0.763382
0.902632 0.266258 0.780104
1.000000 0.255474 0.802110
0.000000 0.362353 0.825284
0.125659 0.250727 0.750493
0.343728 0.349903 0.814608
0.382581 0.257442 0.755786
0.513192 0.263891 0.755934
0.716107 0.357375 0.781997
0.752770 0.254043 0.751398
0.898589 0.327417 0.785663
0.967134 0.368454 0.803655
0.000000 0.445274 0.798894
0.160721 0.418256 0.782523
0.251628 0.376906 0.751122
0.398273 0.402522 0.768652
0.577432 0.448383 0.796723
0.708124 0.447662 0.803352
0.833701 0.453640 0.803393
0.901797 0.431701 0.791599
0.982832 0.436630 0.795523
0.000000 0.553157 0.801771
0.129567 0.505563 0.754200
0.303868 0.557111 0.786405
0.416405 0.566596 0.815230
0.563946 0.571374 0.813718
0.707644 0.572650 0.809145
0.832664 0.573285 0.812581
0.907959 0.548357 0.798237
0.987278 0.550965 0.805734
0.036227 0.639475 0.792627
0.127859 0.625576 0.750746
0.289790 0.659843 0.798038
0.415911 0.663942 0.793998
0.547986 0.682435 0.815342
0.687813 0.688654 0.828085
0.823210 0.691946 0.828333
0.906551 0.668430 0.805036
1.000000 0.643534 0.793574
0.071674 0.710201 0.786669
0.158119 0.756281 0.758314
0.312319 0.764003 0.797420
0.447868 0.776541 0.807416
0.563571 0.791291 0.833146
0.678400 0.801522 0.842053
0.808915 0.808749 0.826486
0.899913 0.800591 0.828144
1.000000 0.720678 0.791651
0.271006 0.796607 0.782427
0.148312 0.873284 0.754950
0.474428 0.855962 0.812427
0.535345 0.862031 0.814375
0.601598 0.877744 0.832368
0.702106 0.879419 0.845687
0.793432 0.896213 0.858043
0.930216 0.929248 0.881710
1.000000 0.854723 0.831335
0.352432 1.000000 0.870787
0.141302 1.000000 0.754134
0.563248 1.000000 0.843878
0.512323 1.000000 0.791194
0.748206 1.000000 0.826987
0.823940 1.000000 0.820898
0.876439 1.000000 0.821729
0.906041 1.000000 0.834549
1.000000 1.000000 0.853405
0.410501 0.159935 0.926141
0.584303 0.078959 0.927859
0.710684 0.083799 0.902347
0.687794 0.102830 0.891155
0.786181 0.082886 0.912863
0.841333 0.104301 0.892745
0.882066 0.096769 0.891203
0.907983 0.112888 0.888568
0.970912 0.207173 0.888117
0.019385 0.141147 0.880837
0.127493 0.127679 0.875487
0.250085 0.125018 0.875005
0.377645 0.128236 0.875803
0.594567 0.267423 0.893959
0.626484 0.127880 0.875027
0.751838 0.128859 0.875765
0.878740 0.142520 0.878253
1.000000 0.128972 0.876085
0.000000 0.430229 0.886659
0.164169 0.296984 0.880838
0.337240 0.375827 0.877151
0.375217 0.250321 0.874975
0.502011 0.253671 0.875149
0.663084 0.313529 0.880633
0.816427 0.381080 0.890185
0.899900 0.440009 0.895117
0.945654 0.482809 0.889302
0.000000 0.489916 0.899959
0.125001 0.375024 0.875005
0.250355 0.375504 0.875015
0.381968 0.384504 0.876225
0.508019 0.382673 0.879546
0.695957 0.479828 0.889966
0.810071 0.510446 0.879546
0.896309 0.547331 0.880156
0.975915 0.521688 0.891825
0.040168 0.599344 0.883332
0.125004 0.500007 0.875002
0.256801 0.507170 0.879532
0.375647 0.500856 0.875197
0.567999 0.600290 0.889286
0.696631 0.574603 0.906339
0.797989 0.624706 0.881994
0.886264 0.566633 0.884363
1.000000 0.620333 0.881629
0.111562 0.667849 0.875451
0.125254 0.625070 0.875059
0.327048 0.660454 0.900012
0.433550 0.669499 0.886072
0.546547 0.672923 0.907484
0.674967 0.678481 0.908689
0.812183 0.708904 0.904380
0.900733 0.715240 0.907260
1.000000 0.685067 0.886594
0.184726 0.736183 0.866646
0.127768 0.750510 0.875612
0.347647 0.761152 0.893984
0.467433 0.781960 0.891924
0.589732 0.787756 0.893906
0.682596 0.794963 0.917756
0.804837 0.805696 0.930036
0.902496 0.815681 0.932337
1.000000 0.744512 0.873098
0.447524 0.782874 0.840635
0.169732 0.872877 0.881668
0.274755 0.875529 0.879251
0.604570 0.865518 0.910060
0.583731 0.887054 0.924240
0.733988 0.889375 0.932016
0.811989 0.902368 0.945970
0.912182 0.912494 0.955231
1.000000 0.821156 0.873121
0.320046 1.000000 0.926307
0.496640 1.000000 0.917762
0.651897 1.000000 0.898761
0.510817 1.000000 0.885861
0.734213 1.000000 0.906286
0.818521 1.000000 0.891231
0.867838 1.000000 0.889950
0.911077 1.000000 0.897180
1.000000 1.000000 0.929601
0.038244 0.022174 1.000000
0.143625 0.014169 1.000000
0.318709 0.003954 1.000000
0.493088 0.015680 1.000000
0.565929 0.002346 1.000000
0.689626 0.018844 1.000000
0.789591 0.009971 1.000000
0.882575 0.018512 1.000000
1.000000 0.015957 1.000000
0.000000 0.132541 1.000000
0.109320 0.107398 1.000000
0.259925 0.149137 1.000000
0.411924 0.131658 1.000000
0.552418 0.097394 1.000000
0.689206 0.079549 1.000000
0.808121 0.077730 1.000000
0.903636 0.099266 1.000000
0.999895 0.127162 1.000000
0.000000 0.274349 1.000000
0.064744 0.216317 1.000000
0.196825 0.229846 1.000000
0.386584 0.266330 1.000000
0.539980 0.249103 1.000000
0.684007 0.224287 1.000000
0.809610 0.223236 1.000000
0.894890 0.240594 1.000000
0.999455 0.256047 1.000000
0.000000 0.422962 1.000000
0.048433 0.395024 1.000000
0.156895 0.326409 1.000000
0.251030 0.327229 1.000000
0.548065 0.394399 1.000000
0.684000 0.379805 1.000000
0.803981 0.375408 1.000000
0.895352 0.383181 1.000000
0.991825 0.416814 1.000000
0.003256 0.557285 1.000000
0.071216 0.532155 1.000000
0.125174 0.539662 1.000000
0.281677 0.458888 1.000000
0.369058 0.472247 1.000000
0.668951 0.523470 1.000000
0.800088 0.533264 1.000000
0.904845 0.539413 1.000000
0.991561 0.545669 1.000000
0.014766 0.657380 1.000000
0.035628 0.668188 1.000000
0.218402 0.644046 1.000000
0.376395 0.684174 1.000000
0.467296 0.625595 1.000000
0.546727 0.636304 1.000000
0.799343 0.677518 1.000000
0.903908 0.669154 1.000000
1.000000 0.639675 1.000000
0.001017 0.735484 1.000000
0.161332 0.771135 1.000000
0.282797 0.785059 1.000000
0.464761 0.798177 1.000000
0.626446 0.811748 1.000000
0.711905 0.804448 1.000000
0.750362 0.814313 1.000000
0.918396 0.812665 1.000000
1.000000 0.754135 1.000000
0.071640 0.794633 1.000000
0.144389 0.870024 1.000000
0.364957 0.847041 1.000000
0.472112 0.857624 1.000000
0.609405 0.863276 1.000000
0.732690 0.875143 1.000000
0.849104 0.891206 1.000000
0.908492 0.922681 1.000000
1.000000 0.862288 1.000000
0.047376 0.989885 1.000000
0.129734 1.000000 1.000000
0.269441 0.999911 1.000000
0.401253 1.000000 1.000000
0.517653 1.000000 1.000000
0.640785 1.000000 1.000000
0.760342 1.000000 1.000000
0.877736 1.000000 1.000000
1.000000 1.000000 1.000000
