testing/Canon EOS RP/fit-hybrid/out/EOS RP Lightroom match.cube
TITLE "EOS RP -> Lightroom match (hybrid segment fit; obj 5.23 in 1.37 loo 8.07)"
LUT_3D_SIZE 33
0.011091 0.006570 0.012517
0.025815 0.011499 0.012053
0.060172 0.017892 0.013488
0.096569 0.020112 0.014815
0.149834 0.017775 0.015491
0.202550 0.013891 0.016068
0.250576 0.007414 0.015642
0.306659 0.005060 0.016120
0.334322 0.003374 0.016518
0.369370 0.002736 0.018049
0.415393 0.000000 0.019460
0.447041 0.000203 0.021059
0.482614 0.000034 0.023387
0.506008 0.000510 0.023794
0.534070 0.000754 0.027987
0.562757 0.001920 0.030957
0.581658 0.003405 0.030759
0.609828 0.005267 0.033391
0.640108 0.007256 0.034924
0.661163 0.008956 0.032986
0.685963 0.010457 0.032658
0.711701 0.010992 0.031650
0.737567 0.011533 0.031773
0.765987 0.010184 0.033856
0.795756 0.007638 0.035192
0.822649 0.006197 0.035809
0.847211 0.002819 0.036372
0.873407 0.002537 0.036968
0.889690 0.000000 0.033909
0.910107 0.000355 0.048110
0.940551 0.001066 0.047583
0.970331 0.001455 0.031737
1.000000 0.004153 0.013300
0.007995 0.020209 0.010615
0.029694 0.023805 0.015954
0.059148 0.031110 0.019343
0.091160 0.039379 0.022502
0.138454 0.047806 0.026800
0.160850 0.051080 0.027441
0.205027 0.052729 0.024804
0.262393 0.046910 0.023174
0.304491 0.043457 0.021359
0.345318 0.040642 0.020891
0.387951 0.031908 0.020748
0.423600 0.030263 0.022347
0.462870 0.026184 0.022625
0.492392 0.025918 0.022815
0.522782 0.024361 0.024543
0.552163 0.022127 0.026799
0.577904 0.025348 0.027679
0.607867 0.031179 0.030628
0.638733 0.035439 0.033294
0.661740 0.036491 0.032816
0.687712 0.032743 0.034370
0.717920 0.021399 0.038017
0.742753 0.028381 0.035646
0.768173 0.035097 0.034493
0.796147 0.035972 0.034183
0.823434 0.029968 0.032166
0.851739 0.013951 0.026717
0.878861 0.015525 0.027587
0.903750 0.010935 0.022107
0.915150 0.025763 0.037649
0.940292 0.030829 0.035024
0.969833 0.030497 0.009131
1.000000 0.024688 0.008494
0.001790 0.058796 0.011188
0.025914 0.050379 0.018103
0.061878 0.048032 0.026025
0.095695 0.056788 0.032266
0.134335 0.065337 0.035868
0.158290 0.074635 0.038338
0.191887 0.082736 0.038506
0.243309 0.084189 0.036658
0.284911 0.089444 0.031991
0.323378 0.088571 0.028142
0.361381 0.075578 0.027029
0.396256 0.068697 0.028330
0.441153 0.055812 0.025215
0.474118 0.052307 0.024313
0.506066 0.044524 0.023946
0.537378 0.035946 0.023529
0.567305 0.036164 0.023571
0.598865 0.038919 0.025093
0.634609 0.045310 0.031276
0.663904 0.042543 0.037048
0.695496 0.027025 0.046689
0.727677 0.020751 0.049718
0.756944 0.024231 0.048332
0.783160 0.032036 0.045059
0.801124 0.046241 0.034323
0.825981 0.030561 0.021178
0.856741 0.023377 0.017709
0.887460 0.023684 0.017762
0.916486 0.025033 0.016900
0.934950 0.036432 0.015256
0.941427 0.059148 0.005856
0.969269 0.062009 0.001926
1.000000 0.060137 0.009107
0.000000 0.098903 0.011005
0.012611 0.090925 0.014874
0.043830 0.080875 0.022551
0.094687 0.075398 0.037687
0.133134 0.085780 0.048337
0.165490 0.099902 0.054614
0.192234 0.112010 0.057953
0.225937 0.117526 0.055260
0.270033 0.118432 0.050030
0.317335 0.117888 0.041346
0.348647 0.115058 0.036483
0.378766 0.110051 0.037192
0.424505 0.094680 0.033662
0.458881 0.087143 0.031381
0.495749 0.074441 0.027911
0.532720 0.063632 0.024460
0.562696 0.063070 0.023732
0.594616 0.058757 0.025543
0.632892 0.047008 0.032504
0.665484 0.045367 0.036459
0.696762 0.048173 0.047140
0.728401 0.049014 0.050441
0.758882 0.049439 0.050243
0.787553 0.049309 0.049120
0.809941 0.051971 0.041413
0.828352 0.052792 0.021518
0.857111 0.052949 0.017162
0.888016 0.053126 0.016851
0.917084 0.055097 0.015942
0.937026 0.065442 0.011852
0.941442 0.090167 0.001797
0.969029 0.094075 0.001337
1.000000 0.097960 0.009921
0.000000 0.136996 0.015148
0.010495 0.119370 0.017003
0.025085 0.109014 0.019828
0.051074 0.106067 0.023796
0.108671 0.102382 0.046917
0.166795 0.118440 0.064383
0.204384 0.133926 0.075870
0.233377 0.145079 0.074298
0.257912 0.153744 0.072712
0.292199 0.153428 0.066983
0.334855 0.146989 0.055920
0.369273 0.147245 0.050531
0.415809 0.132376 0.043686
0.444503 0.124995 0.040786
0.484667 0.111321 0.035459
0.528318 0.097506 0.028559
0.556770 0.095465 0.026593
0.593523 0.083300 0.030143
0.634129 0.071456 0.034615
0.665648 0.071740 0.035313
0.695884 0.075250 0.038621
0.727078 0.079532 0.046877
0.757235 0.078518 0.049738
0.785849 0.072584 0.051610
0.814651 0.072458 0.049256
0.834757 0.078877 0.031917
0.856944 0.085492 0.018558
0.884924 0.087860 0.015597
0.909770 0.093773 0.012412
0.931072 0.102710 0.008744
0.940717 0.122188 0.001218
0.968955 0.126066 0.001699
1.000000 0.134764 0.013197
0.000000 0.165790 0.013566
0.011915 0.133742 0.017508
0.021038 0.120335 0.019965
0.033506 0.116343 0.023942
0.065628 0.128829 0.030981
0.120896 0.137187 0.053300
0.198833 0.154685 0.083887
0.241983 0.167503 0.089567
0.269981 0.177640 0.091919
0.292689 0.185324 0.089479
0.315500 0.190851 0.088706
0.352076 0.181861 0.075747
0.407402 0.162077 0.055833
0.431934 0.159793 0.051468
0.472587 0.150207 0.045841
0.517831 0.137311 0.036259
0.548350 0.131528 0.031538
0.589289 0.118054 0.033437
0.632413 0.106959 0.036470
0.664043 0.107333 0.036167
0.693202 0.110874 0.035054
0.723721 0.111129 0.036699
0.754610 0.105058 0.047732
0.785917 0.101386 0.052565
0.816935 0.101250 0.052696
0.842783 0.106305 0.045668
0.853381 0.126397 0.020631
0.872312 0.134209 0.010614
0.892404 0.142791 0.004088
0.918084 0.147067 0.002304
0.939872 0.154525 0.000476
0.968967 0.157443 0.001697
1.000000 0.167137 0.013706
0.000000 0.213130 0.020265
0.012514 0.175598 0.022457
0.021414 0.159977 0.022523
0.034368 0.146352 0.026062
0.050497 0.145118 0.029715
0.074443 0.141985 0.041579
0.145528 0.170591 0.056367
0.216865 0.183574 0.090620
0.271763 0.195807 0.108045
0.300607 0.205685 0.107285
0.321534 0.215298 0.109616
0.343976 0.220143 0.105796
0.386901 0.206658 0.085275
0.419792 0.198964 0.072433
0.468875 0.185941 0.057251
0.517027 0.172627 0.043996
0.548607 0.166200 0.040196
0.589303 0.152996 0.037411
0.630164 0.144568 0.038474
0.661690 0.144845 0.036886
0.692835 0.145266 0.034828
0.724113 0.143770 0.033945
0.754676 0.140961 0.038930
0.785777 0.134591 0.049581
0.816577 0.133852 0.051400
0.843143 0.141965 0.045117
0.855796 0.163933 0.023605
0.864732 0.174319 0.006886
0.888908 0.177561 0.002161
0.919170 0.178087 0.001755
0.945920 0.181412 0.001242
0.969746 0.189244 0.002397
1.000000 0.207537 0.018307
0.000000 0.242886 0.025370
0.013945 0.219255 0.027589
0.025499 0.197612 0.029067
0.041702 0.176333 0.034673
0.058153 0.165678 0.040317
0.080076 0.171769 0.046211
0.110548 0.186373 0.049021
0.153568 0.185165 0.076015
0.241876 0.208405 0.096699
0.293670 0.221317 0.110493
0.325563 0.230866 0.124875
0.353133 0.240990 0.121384
0.380595 0.247187 0.113367
0.409964 0.244533 0.103205
0.462441 0.226093 0.077376
0.512889 0.210125 0.056652
0.545419 0.206597 0.052449
0.584611 0.194975 0.042346
0.622926 0.186731 0.038063
0.658068 0.184268 0.036971
0.692107 0.181659 0.036029
0.724042 0.178583 0.034573
0.754752 0.178661 0.034278
0.785419 0.175029 0.037882
0.815807 0.173950 0.042244
0.843587 0.191141 0.036107
0.867395 0.199891 0.029345
0.872512 0.206073 0.011932
0.890337 0.208775 0.003165
0.919279 0.209293 0.001957
0.945656 0.211774 0.001554
0.968486 0.220290 0.002950
0.999651 0.239811 0.022446
0.000000 0.283305 0.024655
0.012790 0.264135 0.025362
0.022942 0.246354 0.026839
0.036657 0.231419 0.031074
0.057518 0.211888 0.040511
0.079553 0.204822 0.048238
0.099345 0.195522 0.061462
0.120876 0.198301 0.072410
0.190573 0.229636 0.067729
0.246680 0.234005 0.095656
0.313044 0.243064 0.130242
0.359701 0.258223 0.132689
0.388023 0.269247 0.132614
0.414292 0.277307 0.128238
0.459869 0.270064 0.104693
0.503619 0.257890 0.082339
0.542793 0.249593 0.068413
0.584436 0.234830 0.048007
0.619692 0.227300 0.039407
0.655256 0.224417 0.038674
0.690775 0.220838 0.038134
0.722939 0.217776 0.035965
0.753923 0.218572 0.030177
0.785227 0.219555 0.021156
0.815943 0.221169 0.021076
0.844955 0.228803 0.030142
0.874750 0.231422 0.033265
0.895194 0.233879 0.026703
0.897682 0.239524 0.008719
0.915912 0.241693 0.002957
0.930077 0.246086 0.001250
0.957825 0.251200 0.002802
0.997894 0.275187 0.021910
0.000000 0.306977 0.019304
0.014245 0.302044 0.026151
0.025334 0.286341 0.029435
0.040591 0.269827 0.035359
0.064095 0.248792 0.047008
0.087340 0.227569 0.058589
0.107464 0.217254 0.069664
0.125308 0.227160 0.069423
0.151195 0.242072 0.064970
0.176019 0.237389 0.080388
0.255430 0.253205 0.099436
0.352965 0.275468 0.102368
0.394698 0.285563 0.140097
0.426788 0.297431 0.141177
0.463884 0.303241 0.124335
0.504248 0.303029 0.107197
0.545763 0.294373 0.089323
0.590883 0.275308 0.060188
0.622887 0.267076 0.047944
0.654847 0.264142 0.043050
0.688129 0.260261 0.038252
0.720675 0.257716 0.034180
0.753308 0.256738 0.024475
0.786018 0.254367 0.015574
0.816789 0.254713 0.014799
0.845680 0.259702 0.020406
0.873740 0.264386 0.029348
0.894378 0.268301 0.025825
0.897988 0.275008 0.012634
0.899002 0.277532 0.002757
0.920756 0.278394 0.000308
0.952648 0.280635 0.001779
0.995306 0.300206 0.018182
0.000000 0.357035 0.040703
0.011558 0.344007 0.027660
0.023918 0.330127 0.026149
0.035360 0.318134 0.029632
0.051261 0.306427 0.036434
0.077120 0.285331 0.046216
0.107424 0.261467 0.058679
0.128812 0.258808 0.062587
0.140656 0.252116 0.070873
0.154671 0.253703 0.075243
0.210043 0.275640 0.071275
0.283616 0.292309 0.080289
0.360834 0.297683 0.126371
0.433916 0.313888 0.143688
0.470894 0.324615 0.138456
0.505769 0.336945 0.138215
0.551378 0.338061 0.116699
0.596013 0.322412 0.080689
0.624726 0.316339 0.068055
0.655124 0.307472 0.051865
0.686758 0.298985 0.036824
0.718748 0.296428 0.031507
0.751717 0.295020 0.023570
0.784470 0.292978 0.017584
0.814536 0.294370 0.016494
0.841658 0.303553 0.019010
0.868400 0.307035 0.021585
0.886418 0.308346 0.019002
0.896528 0.310851 0.012669
0.899589 0.310905 0.003982
0.920439 0.310008 0.000496
0.952240 0.313287 0.003065
0.994506 0.338972 0.027268
0.000000 0.383337 0.012583
0.012295 0.375909 0.015987
0.021623 0.367370 0.017984
0.030630 0.361532 0.020232
0.046242 0.349136 0.026337
0.067378 0.330925 0.033035
0.104221 0.301347 0.050742
0.129666 0.283222 0.063894
0.144430 0.271157 0.076396
0.158717 0.275786 0.077741
0.194311 0.296543 0.069022
0.217677 0.296693 0.076703
0.278202 0.305871 0.093608
0.404446 0.334224 0.099919
0.473753 0.347664 0.126078
0.511572 0.361538 0.154920
0.553174 0.370986 0.141820
0.598290 0.365404 0.099247
0.626048 0.364707 0.089664
0.657791 0.352531 0.067006
0.688715 0.335081 0.037319
0.718826 0.332757 0.031456
0.750347 0.332632 0.023857
0.783049 0.331895 0.019260
0.812196 0.336241 0.019089
0.840835 0.342355 0.019881
0.869594 0.343755 0.019755
0.890808 0.344230 0.017964
0.898013 0.346101 0.013425
0.912738 0.347693 0.010023
0.925564 0.347595 0.005398
0.955426 0.358114 0.010576
0.995733 0.378428 0.021751
0.000000 0.432485 0.060451
0.017115 0.419083 0.039264
0.010832 0.405128 0.022766
0.020700 0.405066 0.015291
0.039959 0.396732 0.018535
0.058437 0.382380 0.024989
0.083950 0.363478 0.036888
0.115624 0.340587 0.051936
0.148161 0.318313 0.068211
0.172137 0.312261 0.075030
0.191721 0.314672 0.075822
0.199044 0.308828 0.084645
0.225871 0.318310 0.083929
0.334753 0.352376 0.072752
0.419147 0.364681 0.109689
0.502450 0.383358 0.154172
0.556050 0.398113 0.156190
0.595567 0.401317 0.128817
0.631082 0.405443 0.113269
0.662966 0.396752 0.087050
0.691161 0.380986 0.058355
0.719456 0.374885 0.042909
0.748327 0.373035 0.027131
0.779310 0.371588 0.021346
0.809893 0.374801 0.020657
0.840641 0.377496 0.020826
0.869807 0.377951 0.019931
0.892057 0.380620 0.017540
0.898062 0.383017 0.013283
0.912876 0.386640 0.012956
0.924879 0.400059 0.017172
0.952086 0.410513 0.023758
0.992148 0.422774 0.041516
0.000000 0.458861 0.024081
0.022031 0.451804 0.025028
0.007485 0.442597 0.014270
0.014519 0.443702 0.008993
0.032102 0.441553 0.008473
0.045716 0.433312 0.012202
0.061135 0.421540 0.019243
0.084670 0.405588 0.029208
0.134893 0.372261 0.050027
0.177912 0.353327 0.064427
0.191295 0.328985 0.083355
0.203853 0.329407 0.087802
0.226060 0.340589 0.083818
0.288768 0.366146 0.068879
0.331071 0.372510 0.090675
0.440846 0.397426 0.120892
0.547232 0.423334 0.136698
0.587260 0.431461 0.161784
0.629837 0.435984 0.142012
0.669813 0.433908 0.106064
0.693917 0.425270 0.085894
0.720369 0.418805 0.062154
0.747490 0.411615 0.029813
0.776670 0.409739 0.022929
0.808036 0.411312 0.021517
0.839900 0.413351 0.021388
0.867515 0.415126 0.019200
0.889719 0.423326 0.014162
0.908051 0.427039 0.011068
0.913816 0.427181 0.012169
0.922668 0.436224 0.015630
0.949938 0.442530 0.018565
0.989426 0.451054 0.024100
0.000000 0.483192 0.026701
0.016670 0.481627 0.026493
0.012493 0.481671 0.013738
0.022781 0.478801 0.008159
0.036178 0.477070 0.006277
0.042243 0.474261 0.007480
0.050736 0.469846 0.010722
0.076822 0.454929 0.019588
0.119002 0.430362 0.034593
0.170987 0.401172 0.053369
0.201356 0.370719 0.075262
0.218450 0.363302 0.084844
0.246045 0.376383 0.080278
0.257458 0.379985 0.081847
0.274704 0.386006 0.083706
0.360916 0.409303 0.081487
0.500434 0.440780 0.082044
0.566355 0.451303 0.138013
0.619537 0.460300 0.139242
0.669736 0.462448 0.103508
0.693980 0.461926 0.103511
0.721018 0.457719 0.077728
0.749482 0.449378 0.039031
0.776996 0.446131 0.027376
0.805830 0.447866 0.021752
0.836364 0.449267 0.019640
0.862125 0.454138 0.015803
0.886704 0.462685 0.010448
0.914408 0.464613 0.009167
0.931771 0.466126 0.009527
0.932288 0.468429 0.013568
0.952532 0.473581 0.019602
0.992706 0.480850 0.028152
0.000000 0.526335 0.059390
0.014664 0.521597 0.036797
0.021424 0.516328 0.017458
0.032758 0.512610 0.008414
0.042674 0.511879 0.005264
0.037084 0.514745 0.003612
0.039028 0.519205 0.002606
0.063029 0.512300 0.006075
0.093841 0.502388 0.012034
0.156628 0.482503 0.024600
0.210176 0.460525 0.040002
0.241958 0.422220 0.064973
0.256886 0.410970 0.075947
0.261681 0.404177 0.083301
0.279828 0.413346 0.078946
0.333124 0.436712 0.064085
0.409783 0.459490 0.056038
0.492643 0.468814 0.093019
0.588764 0.485023 0.102410
0.654012 0.490757 0.091987
0.689554 0.493484 0.104603
0.720069 0.493740 0.081471
0.749952 0.490012 0.053261
0.776801 0.486108 0.035286
0.803336 0.486247 0.020406
0.832565 0.486163 0.015712
0.859174 0.491437 0.011955
0.886532 0.497532 0.008089
0.913880 0.499525 0.007635
0.930668 0.509064 0.006446
0.941683 0.509654 0.013398
0.958931 0.517652 0.031366
0.991682 0.523187 0.041823
0.000000 0.555813 0.018388
0.020428 0.553400 0.031393
0.027689 0.547264 0.019559
0.034940 0.542967 0.007570
0.052564 0.542585 0.004984
0.053070 0.543499 0.003311
0.040467 0.553532 0.002436
0.068107 0.550140 0.003101
0.110124 0.543983 0.006834
0.166493 0.533139 0.013789
0.218423 0.511893 0.026945
0.255989 0.477989 0.048064
0.268704 0.448500 0.067961
0.274868 0.437377 0.076051
0.294691 0.444455 0.071207
0.326276 0.459239 0.062071
0.342583 0.465784 0.060319
0.408488 0.482537 0.059717
0.542655 0.511738 0.050269
0.623087 0.521676 0.054344
0.675138 0.526125 0.076037
0.719433 0.531219 0.060287
0.749820 0.529796 0.047942
0.775806 0.525887 0.033185
0.801395 0.522445 0.016622
0.830063 0.521520 0.011515
0.858329 0.527140 0.008694
0.887257 0.531847 0.006078
0.907916 0.539041 0.004921
0.919227 0.555801 0.001950
0.943432 0.555514 0.004702
0.959740 0.552702 0.017623
0.989500 0.553916 0.022048
0.000000 0.587288 0.084794
0.026966 0.584742 0.063046
0.047993 0.573114 0.037958
0.050018 0.564405 0.008766
0.044996 0.572046 0.004944
0.023928 0.587991 0.005911
0.042209 0.589946 0.004652
0.077598 0.587006 0.004231
0.126009 0.584722 0.004452
0.176479 0.583453 0.006164
0.228249 0.572728 0.012838
0.275120 0.554369 0.023751
0.305169 0.531422 0.036669
0.312467 0.496923 0.053310
0.323799 0.483690 0.058017
0.337723 0.483808 0.056782
0.350177 0.488564 0.056641
0.380534 0.503325 0.054184
0.478179 0.534913 0.041138
0.541353 0.540698 0.048296
0.630762 0.556273 0.051472
0.715708 0.570523 0.033419
0.749601 0.566471 0.035807
0.775656 0.564446 0.028111
0.801136 0.559387 0.017284
0.829432 0.557474 0.011706
0.857901 0.563059 0.008120
0.882909 0.568204 0.005620
0.896077 0.581949 0.002650
0.915943 0.591122 0.000926
0.944048 0.589868 0.002274
0.967454 0.583734 0.012751
0.995850 0.581406 0.049608
0.000000 0.614492 0.047092
0.029511 0.613012 0.052431
0.058333 0.599787 0.037670
0.076746 0.575874 0.006317
0.030261 0.605661 0.007903
0.020252 0.622364 0.009947
0.044352 0.622918 0.010303
0.076918 0.622075 0.007677
0.129943 0.620347 0.006197
0.180756 0.622588 0.007517
0.232319 0.619821 0.009430
0.287829 0.609845 0.014773
0.333828 0.598858 0.018342
0.352679 0.568140 0.029809
0.367120 0.540821 0.037302
0.352725 0.514074 0.049504
0.369071 0.518144 0.052654
0.395155 0.530858 0.053117
0.436956 0.548984 0.051152
0.478105 0.559903 0.054591
0.576785 0.584362 0.043532
0.688283 0.607670 0.022188
0.736951 0.604923 0.027485
0.775444 0.606637 0.023430
0.802724 0.602248 0.018858
0.830183 0.599499 0.013405
0.857695 0.602069 0.007233
0.881229 0.604437 0.005248
0.899825 0.611483 0.003370
0.918548 0.619238 0.001879
0.939515 0.619159 0.002394
0.963945 0.616602 0.007632
0.998628 0.610249 0.040083
0.000046 0.636845 0.054713
0.028290 0.632183 0.056358
0.053109 0.624029 0.040492
0.075270 0.606754 0.010164
0.030470 0.638189 0.019042
0.025269 0.652840 0.023791
0.048194 0.654261 0.029425
0.082825 0.653024 0.024002
0.154626 0.646402 0.014338
0.189464 0.658023 0.017661
0.241770 0.656565 0.019582
0.302315 0.652334 0.020364
0.354893 0.646982 0.020752
0.388367 0.631117 0.023363
0.404659 0.606518 0.028329
0.401244 0.576817 0.036273
0.399171 0.558323 0.046908
0.421508 0.565261 0.050271
0.437043 0.573249 0.056719
0.464424 0.587138 0.065830
0.553426 0.613621 0.054604
0.641867 0.631332 0.037541
0.709123 0.639888 0.031558
0.778209 0.650170 0.019995
0.805994 0.644687 0.018548
0.833032 0.639947 0.015988
0.860373 0.636441 0.009926
0.883433 0.636068 0.007661
0.902350 0.642433 0.005329
0.916236 0.652072 0.003421
0.933048 0.659670 0.003027
0.961283 0.658271 0.006844
0.997959 0.638334 0.042677
0.000000 0.658625 0.112445
0.024617 0.659996 0.080191
0.046026 0.662217 0.054850
0.040432 0.662025 0.029896
0.007086 0.682161 0.031184
0.027664 0.684617 0.037778
0.050770 0.685258 0.052920
0.087058 0.684497 0.048326
0.165203 0.679161 0.028902
0.193271 0.693750 0.027960
0.248938 0.692143 0.031684
0.313942 0.690826 0.027890
0.377392 0.692061 0.025114
0.424027 0.689689 0.021346
0.455099 0.676867 0.021564
0.475552 0.661048 0.020456
0.462224 0.623552 0.030553
0.449325 0.602351 0.040916
0.453049 0.599606 0.052989
0.478650 0.612403 0.060563
0.534097 0.637821 0.062329
0.596907 0.655072 0.058664
0.673004 0.670112 0.045077
0.771490 0.688899 0.019777
0.805235 0.682943 0.019123
0.834682 0.678376 0.018868
0.860597 0.670590 0.015222
0.885919 0.668256 0.011844
0.908232 0.674191 0.008094
0.920285 0.683021 0.005866
0.931892 0.691474 0.004451
0.958091 0.689821 0.011774
0.996993 0.662800 0.074635
0.000000 0.680337 0.053322
0.021760 0.686848 0.059828
0.043649 0.692393 0.044570
0.053310 0.692495 0.026862
0.018429 0.709952 0.034991
0.033359 0.711773 0.058773
0.059751 0.711148 0.084671
0.111911 0.710771 0.073193
0.203472 0.706866 0.043072
0.227821 0.720242 0.041912
0.273628 0.720659 0.050474
0.333166 0.722155 0.042177
0.400356 0.724657 0.039595
0.444155 0.724161 0.037309
0.482156 0.718925 0.035899
0.511582 0.709901 0.032988
0.517679 0.687513 0.038572
0.508943 0.661480 0.042215
0.490971 0.637457 0.044489
0.508619 0.644224 0.047860
0.535939 0.660103 0.048986
0.568033 0.678498 0.060814
0.646651 0.698618 0.053256
0.747288 0.718262 0.026329
0.794694 0.719030 0.025510
0.837621 0.718396 0.022643
0.863301 0.707336 0.018909
0.891101 0.701775 0.015393
0.915141 0.707371 0.010306
0.927855 0.713651 0.008384
0.933768 0.721764 0.005900
0.954221 0.722888 0.006294
0.993907 0.691449 0.035929
0.000000 0.700090 0.171686
0.019028 0.711535 0.096118
0.037595 0.722035 0.045971
0.058250 0.726339 0.023209
0.076913 0.724269 0.025000
0.075924 0.727837 0.072109
0.076818 0.736918 0.110002
0.155109 0.738477 0.084416
0.231636 0.741093 0.058737
0.264214 0.746488 0.055590
0.303920 0.748298 0.072974
0.363154 0.751622 0.061744
0.426862 0.756585 0.051643
0.465854 0.757739 0.049394
0.508414 0.757709 0.045596
0.551811 0.758774 0.036303
0.582942 0.754346 0.037329
0.596230 0.740141 0.031934
0.595978 0.723814 0.027652
0.569872 0.697971 0.030533
0.555623 0.689961 0.038741
0.576841 0.703270 0.047091
0.630982 0.726964 0.050351
0.711081 0.745762 0.040217
0.775814 0.754578 0.041589
0.841109 0.760335 0.030461
0.868980 0.747148 0.025149
0.897713 0.737596 0.017930
0.922908 0.734957 0.014172
0.938406 0.742902 0.012150
0.943902 0.751197 0.011702
0.954604 0.753976 0.010611
0.993494 0.716163 0.079607
0.000000 0.714982 0.110879
0.019487 0.732338 0.085689
0.035837 0.749556 0.040093
0.061444 0.756178 0.019208
0.122198 0.748303 0.013155
0.168465 0.746853 0.037554
0.143555 0.757200 0.086731
0.203103 0.766664 0.068706
0.258760 0.768332 0.058746
0.295169 0.770714 0.061848
0.323478 0.774556 0.072590
0.389563 0.775656 0.070067
0.451221 0.781807 0.053102
0.488447 0.782526 0.050817
0.529519 0.784262 0.043865
0.575719 0.787821 0.030693
0.612451 0.788240 0.028662
0.636834 0.783082 0.025323
0.647921 0.773662 0.021796
0.630367 0.753717 0.022417
0.598793 0.733191 0.029285
0.604253 0.737876 0.042986
0.636703 0.755633 0.053027
0.662108 0.767307 0.063322
0.757580 0.787183 0.065669
0.836083 0.798292 0.048563
0.870609 0.793135 0.041179
0.902210 0.786924 0.020826
0.926703 0.776726 0.018253
0.942805 0.781113 0.018488
0.959244 0.784020 0.030117
0.972427 0.775096 0.032096
0.999531 0.725570 0.086588
0.000000 0.730261 0.220889
0.025943 0.743071 0.146334
0.046706 0.769964 0.039672
0.095248 0.777462 0.011875
0.168532 0.778833 0.003403
0.203195 0.777794 0.013516
0.217237 0.775155 0.045762
0.242776 0.781898 0.072276
0.288735 0.792719 0.069461
0.330120 0.793425 0.069326
0.357909 0.794484 0.082678
0.426336 0.797653 0.079627
0.476433 0.804232 0.063739
0.511856 0.805348 0.061276
0.552148 0.808229 0.049582
0.600041 0.814918 0.031330
0.642304 0.819627 0.029629
0.675990 0.821643 0.026218
0.713553 0.826115 0.020211
0.724425 0.819388 0.018439
0.728331 0.814118 0.017470
0.687036 0.793727 0.026312
0.662499 0.787916 0.043729
0.682226 0.800571 0.073410
0.748384 0.822963 0.099790
0.812400 0.830969 0.092734
0.867361 0.836597 0.076380
0.899399 0.830084 0.046604
0.923736 0.819305 0.032068
0.943610 0.816560 0.038925
0.958255 0.819348 0.056865
0.983366 0.812672 0.070374
1.000000 0.751376 0.157570
0.000515 0.737812 0.193878
0.032731 0.748131 0.163446
0.073630 0.779414 0.050062
0.132459 0.797957 0.029698
0.176570 0.808926 0.003420
0.208819 0.807658 0.013369
0.240381 0.791094 0.102063
0.281980 0.790444 0.167291
0.307234 0.812589 0.101615
0.343215 0.817661 0.079095
0.389566 0.807642 0.105540
0.441478 0.809364 0.114358
0.482381 0.818543 0.102115
0.518834 0.819836 0.099223
0.559303 0.824147 0.086115
0.605194 0.829860 0.076810
0.647120 0.834412 0.081077
0.683065 0.838142 0.074662
0.723275 0.844922 0.059545
0.750989 0.846117 0.051716
0.770086 0.847346 0.040054
0.760224 0.840079 0.031511
0.739625 0.836530 0.029272
0.723756 0.839214 0.052519
0.752450 0.852793 0.099696
0.777072 0.860556 0.156718
0.862350 0.871822 0.119320
0.890299 0.867421 0.086746
0.914971 0.859045 0.050548
0.937019 0.852196 0.067686
0.951980 0.852390 0.091505
0.981015 0.842369 0.097225
1.000000 0.766041 0.163427
0.006640 0.749627 0.329738
0.048961 0.765282 0.261395
0.136797 0.788699 0.242273
0.175260 0.797626 0.217422
0.178206 0.824949 0.062827
0.210090 0.819950 0.098170
0.262000 0.804586 0.222038
0.295877 0.803764 0.237083
0.321719 0.817104 0.185398
0.350556 0.825327 0.119904
0.407215 0.819086 0.153676
0.442977 0.821037 0.164520
0.479667 0.826675 0.174934
0.519267 0.830841 0.159388
0.559250 0.835093 0.147528
0.603934 0.840012 0.142986
0.645055 0.844375 0.157151
0.679566 0.847430 0.149509
0.723560 0.856793 0.119137
0.760740 0.861407 0.111040
0.790330 0.866067 0.095931
0.817745 0.870155 0.069752
0.816449 0.870036 0.060319
0.802527 0.872265 0.052370
0.775836 0.876655 0.070545
0.797857 0.886826 0.130434
0.847337 0.906107 0.169568
