testing/Canon EOS RP/fit-hybrid/out/EOS RP Lightroom match.cube
TITLE "EOS RP -> Lightroom match (hybrid segment fit; obj 5.23 in 1.37 loo 8.07)"
LUT_3D_SIZE 5
0.011091 0.006570 0.012517
0.334322 0.003374 0.016518
0.581658 0.003405 0.030759
0.795756 0.007638 0.035192
1.000000 0.004153 0.013300
0.000000 0.283305 0.024655
0.190573 0.229636 0.067729
0.542793 0.249593 0.068413
0.815943 0.221169 0.021076
0.997894 0.275187 0.021910
0.000000 0.555813 0.018388
0.110124 0.543983 0.006834
0.342583 0.465784 0.060319
0.801395 0.522445 0.016622
0.989500 0.553916 0.022048
0.000000 0.730261 0.220889
0.288735 0.792719 0.069461
0.642304 0.819627 0.029629
0.748384 0.822963 0.099790
1.000000 0.751376 0.157570
0.098835 0.969373 0.145083
0.336023 0.997972 0.046730
0.578330 0.999900 0.070219
0.793793 1.000000 0.071103
1.000000 0.986466 0.066062
0.004254 0.040417 0.337194
0.369460 0.033724 0.283912
0.620938 0.025648 0.250971
0.805076 0.003239 0.245407
0.992682 0.034356 0.323802
0.000905 0.291714 0.344643
0.270420 0.269135 0.280729
0.495165 0.230267 0.242750
0.791566 0.240725 0.244725
1.000000 0.286824 0.333761
0.000000 0.523525 0.362681
0.224011 0.531613 0.309576
0.403328 0.455632 0.292616
0.809688 0.523506 0.298457
0.990638 0.524877 0.321528
0.000644 0.712498 0.468928
0.250124 0.750152 0.252630
0.508674 0.753604 0.280031
0.726580 0.796350 0.366055
1.000000 0.723017 0.444791
0.005112 1.000000 0.324825
0.357647 1.000000 0.280265
0.598160 1.000000 0.251039
0.767802 1.000000 0.248516
0.994329 1.000000 0.304473
0.088998 0.060477 0.637783
0.416596 0.054194 0.589262
0.648877 0.033467 0.559248
0.863746 0.023987 0.543000
1.000000 0.049362 0.605672
0.000000 0.309348 0.614927
0.286270 0.301133 0.568423
0.573499 0.303654 0.556205
0.807812 0.273653 0.524999
0.991253 0.296213 0.597122
0.000000 0.523303 0.599485
0.241151 0.540636 0.584720
0.528943 0.530477 0.549418
0.794195 0.514461 0.530444
0.997027 0.510213 0.543992
0.004024 0.695325 0.612933
0.251967 0.750359 0.504662
0.541439 0.781552 0.633727
0.735212 0.770140 0.594423
1.000000 0.706928 0.608813
0.096207 1.000000 0.630995
0.397691 1.000000 0.578933
0.563180 1.000000 0.525246
0.842797 1.000000 0.536245
1.000000 1.000000 0.588535
0.424487 0.065963 0.900270
0.606835 0.057044 0.856503
0.776307 0.036762 0.835929
0.892058 0.113088 0.830328
1.000000 0.070879 0.852736
0.000000 0.362353 0.825284
0.343728 0.349903 0.814608
0.513192 0.263891 0.755934
0.752770 0.254043 0.751398
0.967134 0.368454 0.803655
0.000000 0.553157 0.801771
0.303868 0.557111 0.786405
0.563946 0.571374 0.813718
0.832664 0.573285 0.812581
0.987278 0.550965 0.805734
0.071674 0.710201 0.786669
0.312319 0.764003 0.797420
0.563571 0.791291 0.833146
0.808915 0.808749 0.826486
1.000000 0.720678 0.791651
0.352432 1.000000 0.870787
0.563248 1.000000 0.843878
0.748206 1.000000 0.826987
0.876439 1.000000 0.821729
1.000000 1.000000 0.853405
0.038244 0.022174 1.000000
0.318709 0.003954 1.000000
0.565929 0.002346 1.000000
0.789591 0.009971 1.000000
1.000000 0.015957 1.000000
0.000000 0.274349 1.000000
0.196825 0.229846 1.000000
0.539980 0.249103 1.000000
0.809610 0.223236 1.000000
0.999455 0.256047 1.000000
0.003256 0.557285 1.000000
0.125174 0.539662 1.000000
0.369058 0.472247 1.000000
0.800088 0.533264 1.000000
0.991561 0.545669 1.000000
0.001017 0.735484 1.000000
0.282797 0.785059 1.000000
0.626446 0.811748 1.000000
0.750362 0.814313 1.000000
1.000000 0.754135 1.000000
0.047376 0.989885 1.000000
0.269441 0.999911 1.000000
0.517653 1.000000 1.000000
0.760342 1.000000 1.000000
1.000000 1.000000 1.000000
