luts/Canon EOS RP/EOS RP Lightroom match.cube
TITLE "Canon EOS RP -> Lightroom Camera Standard match. Apply via lut3d (sRGB space) after agx. Base: std matrix, exposure +0.51 EV, fixed agx (see style). Fitted from 5 raw/Lightroom pairs, spektrafilm 5.8."
LUT_3D_SIZE 33
0.014764 0.010341 0.009196
0.028546 0.016347 0.012211
0.059309 0.018208 0.011791
0.097559 0.012750 0.015135
0.138889 0.006202 0.014035
0.176289 0.004362 0.013231
0.187500 0.000000 0.000000
0.218750 0.000000 0.000000
0.250000 0.000000 0.000000
0.281250 0.000000 0.000000
0.312500 0.000000 0.000000
0.343750 0.000000 0.000000
0.375000 0.000000 0.000000
0.406250 0.000000 0.000000
0.437500 0.000000 0.000000
0.468750 0.000000 0.000000
0.500000 0.000000 0.000000
0.531250 0.000000 0.000000
0.562500 0.000000 0.000000
0.593750 0.000000 0.000000
0.625000 0.000000 0.000000
0.656250 0.000000 0.000000
0.687500 0.000000 0.000000
0.718750 0.000000 0.000000
0.750000 0.000000 0.000000
0.781250 0.000000 0.000000
0.812500 0.000000 0.000000
0.843750 0.000000 0.000000
0.875000 0.000000 0.000000
0.906250 0.000000 0.000000
0.937500 0.000000 0.000000
0.968750 0.000000 0.000000
1.000000 0.010411 0.009267
0.016569 0.015451 0.010471
0.036344 0.022955 0.016242
0.067773 0.031733 0.019619
0.104572 0.038059 0.019671
0.140633 0.036423 0.013922
0.176433 0.035730 0.013343
0.223546 0.036513 0.009518
0.218750 0.031250 0.000000
0.250000 0.031250 0.000000
0.281250 0.031250 0.000000
0.312500 0.031250 0.000000
0.343750 0.031250 0.000000
0.375000 0.031250 0.000000
0.406250 0.031250 0.000000
0.437500 0.031250 0.000000
0.468750 0.031250 0.000000
0.500000 0.031250 0.000000
0.531250 0.031250 0.000000
0.562500 0.031250 0.000000
0.593750 0.031250 0.000000
0.625000 0.031250 0.000000
0.656250 0.031250 0.000000
0.687500 0.031250 0.000000
0.718750 0.031250 0.000000
0.750000 0.031250 0.000000
0.781250 0.031250 0.000000
0.812500 0.031250 0.000000
0.843750 0.031250 0.000000
0.875000 0.031250 0.000000
0.906250 0.031250 0.000000
0.937500 0.031250 0.000000
0.968750 0.031250 0.000000
1.000000 0.015231 0.010572
0.014818 0.044681 0.013681
0.043840 0.043060 0.017652
0.078350 0.043485 0.024002
0.114114 0.052395 0.024422
0.145345 0.061071 0.019234
0.183940 0.066100 0.012717
0.223654 0.068085 0.009724
0.268345 0.068155 0.005498
0.303052 0.067219 0.002842
0.330817 0.065514 0.000856
0.312500 0.062500 0.000000
0.343750 0.062500 0.000000
0.375000 0.062500 0.000000
0.406250 0.062500 0.000000
0.437500 0.062500 0.000000
0.468750 0.062500 0.000000
0.500000 0.062500 0.000000
0.531250 0.062500 0.000000
0.562500 0.062500 0.000000
0.593750 0.062500 0.000000
0.625000 0.062500 0.000000
0.656250 0.062500 0.000000
0.687500 0.062500 0.000000
0.718750 0.062500 0.000000
0.750000 0.062500 0.000000
0.781250 0.062500 0.000000
0.812500 0.062500 0.000000
0.843750 0.062500 0.000000
0.875000 0.062500 0.000000
0.906250 0.062500 0.000000
0.937500 0.062500 0.000000
0.968750 0.062500 0.000000
1.000000 0.044346 0.013896
0.014982 0.075596 0.013896
0.038373 0.075313 0.017046
0.061912 0.077406 0.016716
0.089573 0.083236 0.019170
0.130666 0.090955 0.020632
0.183061 0.100538 0.020497
0.233608 0.101265 0.011574
0.273153 0.099613 0.005541
0.304543 0.098575 0.004356
0.330920 0.096976 0.001954
0.312500 0.093750 0.000000
0.343750 0.093750 0.000000
0.375000 0.093750 0.000000
0.406250 0.093750 0.000000
0.437500 0.093750 0.000000
0.468750 0.093750 0.000000
0.500000 0.093750 0.000000
0.531250 0.093750 0.000000
0.562500 0.093750 0.000000
0.593750 0.093750 0.000000
0.625000 0.093750 0.000000
0.656250 0.093750 0.000000
0.687500 0.093750 0.000000
0.718750 0.093750 0.000000
0.750000 0.093750 0.000000
0.781250 0.093750 0.000000
0.812500 0.093750 0.000000
0.843750 0.093750 0.000000
0.875000 0.093750 0.000000
0.906250 0.093750 0.000000
0.937500 0.093750 0.000000
0.968750 0.093750 0.000000
1.000000 0.093750 0.000000
0.000000 0.125000 0.000000
0.000000 0.110764 0.011459
0.031457 0.110715 0.011519
0.042972 0.113291 0.013420
0.084472 0.117846 0.016947
0.147893 0.123165 0.021845
0.239036 0.135725 0.024432
0.279701 0.128521 0.009813
0.305556 0.129365 0.006570
0.332772 0.128949 0.004946
0.353516 0.125278 0.000992
0.371314 0.121872 0.000000
0.390285 0.119779 0.000000
0.411257 0.118390 0.000000
0.437500 0.125000 0.000000
0.468750 0.125000 0.000000
0.500000 0.125000 0.000000
0.531250 0.125000 0.000000
0.562500 0.125000 0.000000
0.593750 0.125000 0.000000
0.625000 0.125000 0.000000
0.656250 0.125000 0.000000
0.687500 0.125000 0.000000
0.718750 0.125000 0.000000
0.750000 0.125000 0.000000
0.781250 0.125000 0.000000
0.812500 0.125000 0.000000
0.843750 0.125000 0.000000
0.875000 0.125000 0.000000
0.906250 0.125000 0.000000
0.937500 0.125000 0.000000
0.968750 0.125000 0.000000
1.000000 0.125000 0.000000
0.000000 0.156250 0.000000
0.031250 0.156250 0.000000
0.014574 0.141097 0.009839
0.034577 0.140754 0.008443
0.057175 0.143657 0.011528
0.090528 0.147941 0.011623
0.160233 0.154080 0.017540
0.268601 0.165040 0.021277
0.302871 0.169038 0.017311
0.331657 0.164143 0.010505
0.357181 0.159485 0.005537
0.376355 0.154803 0.000694
0.396342 0.152054 0.000000
0.419126 0.150151 0.000000
0.437500 0.156250 0.000000
0.468750 0.156250 0.000000
0.500000 0.156250 0.000000
0.531250 0.156250 0.000000
0.562500 0.156250 0.000000
0.593750 0.156250 0.000000
0.625000 0.156250 0.000000
0.656250 0.156250 0.000000
0.687500 0.156250 0.000000
0.718750 0.156250 0.000000
0.750000 0.156250 0.000000
0.781250 0.156250 0.000000
0.812500 0.156250 0.000000
0.843750 0.156250 0.000000
0.875000 0.156250 0.000000
0.906250 0.156250 0.000000
0.937500 0.156250 0.000000
0.968750 0.156250 0.000000
1.000000 0.156250 0.000000
0.000000 0.187500 0.000000
0.031250 0.187500 0.000000
0.000000 0.172057 0.009268
0.030217 0.172342 0.008999
0.056142 0.173393 0.009222
0.083325 0.176784 0.010674
0.118450 0.180719 0.012320
0.146080 0.182940 0.012765
0.260262 0.197397 0.024666
0.333154 0.206138 0.026822
0.358934 0.196440 0.014715
0.383513 0.190872 0.006923
0.401794 0.185179 0.000256
0.423965 0.181045 0.000000
0.437500 0.187500 0.000000
0.468750 0.187500 0.000000
0.500000 0.187500 0.000000
0.531250 0.187500 0.000000
0.562500 0.187500 0.000000
0.593750 0.187500 0.000000
0.625000 0.187500 0.000000
0.656250 0.187500 0.000000
0.687500 0.187500 0.000000
0.718750 0.187500 0.000000
0.750000 0.187500 0.000000
0.781250 0.187500 0.000000
0.812500 0.187500 0.000000
0.843750 0.187500 0.000000
0.875000 0.187500 0.000000
0.906250 0.187500 0.000000
0.937500 0.187500 0.000000
0.968750 0.187500 0.000000
1.000000 0.187500 0.000000
0.000000 0.218750 0.000000
0.031250 0.218750 0.000000
0.062500 0.218750 0.000000
0.023433 0.205699 0.010424
0.054035 0.205875 0.010120
0.081907 0.207776 0.010707
0.108966 0.211140 0.011911
0.134314 0.214199 0.011453
0.166350 0.214892 0.012241
0.198172 0.215227 0.012611
0.312500 0.218750 0.000000
0.343750 0.218750 0.000000
0.375000 0.218750 0.000000
0.406250 0.218750 0.000000
0.437500 0.218750 0.000000
0.468750 0.218750 0.000000
0.500000 0.218750 0.000000
0.531250 0.218750 0.000000
0.562500 0.218750 0.000000
0.593750 0.218750 0.000000
0.625000 0.218750 0.000000
0.656250 0.218750 0.000000
0.687500 0.218750 0.000000
0.718750 0.218750 0.000000
0.750000 0.218750 0.000000
0.781250 0.218750 0.000000
0.812500 0.218750 0.000000
0.843750 0.218750 0.000000
0.875000 0.218750 0.000000
0.906250 0.218750 0.000000
0.937500 0.218750 0.000000
0.968750 0.218750 0.000000
1.000000 0.218750 0.000000
0.000000 0.250000 0.000000
0.031250 0.250000 0.000000
0.062500 0.250000 0.000000
0.093750 0.250000 0.000000
0.051348 0.238106 0.011312
0.079418 0.238976 0.011433
0.106931 0.239352 0.011477
0.131691 0.241251 0.012238
0.155587 0.243485 0.011604
0.185633 0.243135 0.011669
0.312500 0.250000 0.000000
0.343750 0.250000 0.000000
0.375000 0.250000 0.000000
0.406250 0.250000 0.000000
0.437500 0.250000 0.000000
0.468750 0.250000 0.000000
0.500000 0.250000 0.000000
0.531250 0.250000 0.000000
0.562500 0.250000 0.000000
0.593750 0.250000 0.000000
0.625000 0.250000 0.000000
0.656250 0.250000 0.000000
0.687500 0.250000 0.000000
0.718750 0.250000 0.000000
0.750000 0.250000 0.000000
0.781250 0.250000 0.000000
0.812500 0.250000 0.000000
0.843750 0.250000 0.000000
0.875000 0.250000 0.000000
0.906250 0.250000 0.000000
0.937500 0.250000 0.000000
0.968750 0.250000 0.000000
1.000000 0.250000 0.000000
0.000000 0.281250 0.000000
0.031250 0.281250 0.000000
0.062500 0.281250 0.000000
0.093750 0.281250 0.000000
0.125000 0.281250 0.000000
0.076384 0.269598 0.012108
0.103758 0.269470 0.011831
0.128183 0.268816 0.011773
0.150245 0.269405 0.012476
0.178166 0.269705 0.010964
0.208738 0.269381 0.010473
0.343750 0.281250 0.000000
0.375000 0.281250 0.000000
0.406250 0.281250 0.000000
0.437500 0.281250 0.000000
0.468750 0.281250 0.000000
0.500000 0.281250 0.000000
0.531250 0.281250 0.000000
0.562500 0.281250 0.000000
0.593750 0.281250 0.000000
0.625000 0.281250 0.000000
0.656250 0.281250 0.000000
0.687500 0.281250 0.000000
0.718750 0.281250 0.000000
0.750000 0.281250 0.000000
0.781250 0.281250 0.000000
0.812500 0.281250 0.000000
0.843750 0.281250 0.000000
0.875000 0.281250 0.000000
0.906250 0.281250 0.000000
0.937500 0.281250 0.000000
0.968750 0.281250 0.000000
1.000000 0.281250 0.000000
0.000000 0.312500 0.000000
0.031250 0.312500 0.000000
0.062500 0.312500 0.000000
0.093750 0.312500 0.000000
0.125000 0.312500 0.000000
0.156250 0.312500 0.000000
0.096853 0.298490 0.012115
0.124240 0.297965 0.011802
0.148775 0.296678 0.011741
0.175552 0.296447 0.011294
0.204634 0.296361 0.009523
0.234642 0.296364 0.007464
0.375000 0.312500 0.000000
0.406250 0.312500 0.000000
0.437500 0.312500 0.000000
0.468750 0.312500 0.000000
0.500000 0.312500 0.000000
0.531250 0.312500 0.000000
0.562500 0.312500 0.000000
0.593750 0.312500 0.000000
0.625000 0.312500 0.000000
0.656250 0.312500 0.000000
0.687500 0.312500 0.000000
0.718750 0.312500 0.000000
0.750000 0.312500 0.000000
0.781250 0.312500 0.000000
0.812500 0.312500 0.000000
0.843750 0.312500 0.000000
0.875000 0.312500 0.000000
0.906250 0.312500 0.000000
0.937500 0.312500 0.000000
0.968750 0.312500 0.000000
1.000000 0.312500 0.000000
0.000000 0.343750 0.000000
0.031250 0.343750 0.000000
0.062500 0.343750 0.000000
0.093750 0.343750 0.000000
0.125000 0.343750 0.000000
0.156250 0.343750 0.000000
0.187500 0.343750 0.000000
0.120915 0.326931 0.011665
0.147573 0.325425 0.011138
0.175948 0.323880 0.010391
0.203937 0.323216 0.009614
0.233082 0.323010 0.006022
0.261954 0.323141 0.001736
0.406250 0.343750 0.000000
0.437500 0.343750 0.000000
0.468750 0.343750 0.000000
0.500000 0.343750 0.000000
0.531250 0.343750 0.000000
0.562500 0.343750 0.000000
0.593750 0.343750 0.000000
0.625000 0.343750 0.000000
0.656250 0.343750 0.000000
0.687500 0.343750 0.000000
0.718750 0.343750 0.000000
0.750000 0.343750 0.000000
0.781250 0.343750 0.000000
0.812500 0.343750 0.000000
0.843750 0.343750 0.000000
0.875000 0.343750 0.000000
0.906250 0.343750 0.000000
0.937500 0.343750 0.000000
0.968750 0.343750 0.000000
1.000000 0.343750 0.000000
0.000000 0.375000 0.000000
0.031250 0.375000 0.000000
0.062500 0.375000 0.000000
0.093750 0.375000 0.000000
0.125000 0.375000 0.000000
0.156250 0.375000 0.000000
0.187500 0.375000 0.000000
0.218750 0.375000 0.000000
0.146848 0.354657 0.010302
0.175637 0.353388 0.009309
0.204283 0.351721 0.007323
0.233517 0.350889 0.003599
0.262124 0.351468 0.000000
0.296359 0.351910 0.000000
0.437500 0.375000 0.000000
0.468750 0.375000 0.000000
0.500000 0.375000 0.000000
0.531250 0.375000 0.000000
0.562500 0.375000 0.000000
0.593750 0.375000 0.000000
0.625000 0.375000 0.000000
0.656250 0.375000 0.000000
0.687500 0.375000 0.000000
0.718750 0.375000 0.000000
0.750000 0.375000 0.000000
0.781250 0.375000 0.000000
0.812500 0.375000 0.000000
0.843750 0.375000 0.000000
0.875000 0.375000 0.000000
0.906250 0.375000 0.000000
0.937500 0.375000 0.000000
0.968750 0.375000 0.000000
1.000000 0.375000 0.000000
0.000000 0.406250 0.000000
0.031250 0.406250 0.000000
0.062500 0.406250 0.000000
0.093750 0.406250 0.000000
0.125000 0.406250 0.000000
0.156250 0.406250 0.000000
0.187500 0.406250 0.000000
0.218750 0.406250 0.000000
0.250000 0.406250 0.000000
0.176041 0.383652 0.007877
0.204652 0.381750 0.004741
0.234165 0.380449 0.000199
0.262368 0.380604 0.000000
0.297005 0.381925 0.000000
0.332049 0.382932 0.000000
0.468750 0.406250 0.000000
0.500000 0.406250 0.000000
0.531250 0.406250 0.000000
0.562500 0.406250 0.000000
0.593750 0.406250 0.000000
0.625000 0.406250 0.000000
0.656250 0.406250 0.000000
0.687500 0.406250 0.000000
0.718750 0.406250 0.000000
0.750000 0.406250 0.000000
0.781250 0.406250 0.000000
0.812500 0.406250 0.000000
0.843750 0.406250 0.000000
0.875000 0.406250 0.000000
0.906250 0.406250 0.000000
0.937500 0.406250 0.000000
0.968750 0.406250 0.000000
1.000000 0.406250 0.000000
0.000000 0.437500 0.000000
0.031250 0.437500 0.000000
0.062500 0.437500 0.000000
0.093750 0.437500 0.000000
0.125000 0.437500 0.000000
0.156250 0.437500 0.000000
0.187500 0.437500 0.000000
0.218750 0.437500 0.000000
0.250000 0.437500 0.000000
0.281250 0.437500 0.000000
0.206109 0.413312 0.005073
0.235403 0.411541 0.000000
0.265266 0.411373 0.000000
0.298919 0.412748 0.000000
0.331588 0.413637 0.000000
0.365850 0.414555 0.000000
0.500000 0.437500 0.000000
0.531250 0.437500 0.000000
0.562500 0.437500 0.000000
0.593750 0.437500 0.000000
0.625000 0.437500 0.000000
0.656250 0.437500 0.000000
0.687500 0.437500 0.000000
0.718750 0.437500 0.000000
0.750000 0.437500 0.000000
0.781250 0.437500 0.000000
0.812500 0.437500 0.000000
0.843750 0.437500 0.000000
0.875000 0.437500 0.000000
0.906250 0.437500 0.000000
0.937500 0.437500 0.000000
0.968750 0.437500 0.000000
1.000000 0.437500 0.000000
0.000000 0.468750 0.000000
0.031250 0.468750 0.000000
0.062500 0.468750 0.000000
0.093750 0.468750 0.000000
0.125000 0.468750 0.000000
0.156250 0.468750 0.000000
0.187500 0.468750 0.000000
0.218750 0.468750 0.000000
0.250000 0.468750 0.000000
0.281250 0.468750 0.000000
0.312500 0.468750 0.000000
0.242193 0.444234 0.000000
0.271853 0.443848 0.000000
0.303592 0.443953 0.000000
0.336182 0.444593 0.000000
0.379774 0.447582 0.000000
0.423938 0.450747 0.000000
0.531250 0.468750 0.000000
0.562500 0.468750 0.000000
0.593750 0.468750 0.000000
0.625000 0.468750 0.000000
0.656250 0.468750 0.000000
0.687500 0.468750 0.000000
0.718750 0.468750 0.000000
0.750000 0.468750 0.000000
0.781250 0.468750 0.000000
0.812500 0.468750 0.000000
0.843750 0.468750 0.000000
0.875000 0.468750 0.000000
0.906250 0.468750 0.000000
0.937500 0.468750 0.000000
0.968750 0.468750 0.000000
1.000000 0.468750 0.000000
0.000000 0.500000 0.000000
0.031250 0.500000 0.000000
0.062500 0.500000 0.000000
0.093750 0.500000 0.000000
0.125000 0.500000 0.000000
0.156250 0.500000 0.000000
0.187500 0.500000 0.000000
0.218750 0.500000 0.000000
0.250000 0.500000 0.000000
0.281250 0.500000 0.000000
0.312500 0.500000 0.000000
0.343750 0.500000 0.000000
0.276677 0.476143 0.000000
0.310109 0.476555 0.000000
0.344121 0.477147 0.000000
0.381974 0.479080 0.000000
0.420024 0.480967 0.000000
0.455188 0.481997 0.000000
0.562500 0.500000 0.000000
0.593750 0.500000 0.000000
0.625000 0.500000 0.000000
0.656250 0.500000 0.000000
0.687500 0.500000 0.000000
0.718750 0.500000 0.000000
0.750000 0.500000 0.000000
0.781250 0.500000 0.000000
0.812500 0.500000 0.000000
0.843750 0.500000 0.000000
0.875000 0.500000 0.000000
0.906250 0.500000 0.000000
0.937500 0.500000 0.000000
0.968750 0.500000 0.000000
1.000000 0.500000 0.000000
0.000000 0.531250 0.000000
0.031250 0.531250 0.000000
0.062500 0.531250 0.000000
0.093750 0.531250 0.000000
0.125000 0.531250 0.000000
0.156250 0.531250 0.000000
0.187500 0.531250 0.000000
0.218750 0.531250 0.000000
0.250000 0.531250 0.000000
0.281250 0.531250 0.000000
0.312500 0.531250 0.000000
0.343750 0.531250 0.000000
0.375000 0.531250 0.000000
0.326439 0.511948 0.000000
0.356457 0.511671 0.000000
0.388580 0.512000 0.000000
0.423034 0.513139 0.000000
0.457549 0.514111 0.000000
0.562500 0.531250 0.000000
0.593750 0.531250 0.000000
0.625000 0.531250 0.000000
0.656250 0.531250 0.000000
0.687500 0.531250 0.000000
0.718750 0.531250 0.000000
0.750000 0.531250 0.000000
0.781250 0.531250 0.000000
0.812500 0.531250 0.000000
0.843750 0.531250 0.000000
0.875000 0.531250 0.000000
0.906250 0.531250 0.000000
0.937500 0.531250 0.000000
0.968750 0.531250 0.000000
1.000000 0.531250 0.000000
0.000000 0.562500 0.000000
0.031250 0.562500 0.000000
0.062500 0.562500 0.000000
0.093750 0.562500 0.000000
0.125000 0.562500 0.000000
0.156250 0.562500 0.000000
0.187500 0.562500 0.000000
0.218750 0.562500 0.000000
0.250000 0.562500 0.000000
0.281250 0.562500 0.000000
0.312500 0.562500 0.000000
0.343750 0.562500 0.000000
0.375000 0.562500 0.000000
0.406250 0.562500 0.000000
0.361521 0.544250 0.000000
0.393012 0.544557 0.000000
0.424588 0.545093 0.000000
0.455709 0.545384 0.000000
0.488524 0.545925 0.000000
0.593750 0.562500 0.000000
0.625000 0.562500 0.000000
0.656250 0.562500 0.000000
0.687500 0.562500 0.000000
0.718750 0.562500 0.000000
0.750000 0.562500 0.000000
0.781250 0.562500 0.000000
0.812500 0.562500 0.000000
0.843750 0.562500 0.000000
0.875000 0.562500 0.000000
0.906250 0.562500 0.000000
0.937500 0.562500 0.000000
0.968750 0.562500 0.000000
1.000000 0.562500 0.000000
0.000000 0.593750 0.000000
0.031250 0.593750 0.000000
0.062500 0.593750 0.000000
0.093750 0.593750 0.000000
0.125000 0.593750 0.000000
0.156250 0.593750 0.000000
0.187500 0.593750 0.000000
0.218750 0.593750 0.000000
0.250000 0.593750 0.000000
0.281250 0.593750 0.000000
0.312500 0.593750 0.000000
0.343750 0.593750 0.000000
0.375000 0.593750 0.000000
0.406250 0.593750 0.000000
0.437500 0.593750 0.000000
0.396590 0.576699 0.000000
0.425996 0.576896 0.000000
0.454763 0.576621 0.000000
0.485394 0.576637 0.000000
0.593750 0.593750 0.000000
0.625000 0.593750 0.000000
0.656250 0.593750 0.000000
0.687500 0.593750 0.000000
0.718750 0.593750 0.000000
0.750000 0.593750 0.000000
0.781250 0.593750 0.000000
0.812500 0.593750 0.000000
0.843750 0.593750 0.000000
0.875000 0.593750 0.000000
0.906250 0.593750 0.000000
0.937500 0.593750 0.000000
0.968750 0.593750 0.000000
1.000000 0.593750 0.000000
0.000000 0.625000 0.000000
0.031250 0.625000 0.000000
0.062500 0.625000 0.000000
0.093750 0.625000 0.000000
0.125000 0.625000 0.000000
0.156250 0.625000 0.000000
0.187500 0.625000 0.000000
0.218750 0.625000 0.000000
0.250000 0.625000 0.000000
0.281250 0.625000 0.000000
0.312500 0.625000 0.000000
0.343750 0.625000 0.000000
0.375000 0.625000 0.000000
0.406250 0.625000 0.000000
0.437500 0.625000 0.000000
0.468750 0.625000 0.000000
0.500000 0.625000 0.000000
0.531250 0.625000 0.000000
0.562500 0.625000 0.000000
0.593750 0.625000 0.000000
0.625000 0.625000 0.000000
0.656250 0.625000 0.000000
0.687500 0.625000 0.000000
0.718750 0.625000 0.000000
0.750000 0.625000 0.000000
0.781250 0.625000 0.000000
0.812500 0.625000 0.000000
0.843750 0.625000 0.000000
0.875000 0.625000 0.000000
0.906250 0.625000 0.000000
0.937500 0.625000 0.000000
0.968750 0.625000 0.000000
1.000000 0.625000 0.000000
0.000000 0.656250 0.000000
0.031250 0.656250 0.000000
0.062500 0.656250 0.000000
0.093750 0.656250 0.000000
0.125000 0.656250 0.000000
0.156250 0.656250 0.000000
0.187500 0.656250 0.000000
0.218750 0.656250 0.000000
0.250000 0.656250 0.000000
0.281250 0.656250 0.000000
0.312500 0.656250 0.000000
0.343750 0.656250 0.000000
0.375000 0.656250 0.000000
0.406250 0.656250 0.000000
0.437500 0.656250 0.000000
0.468750 0.656250 0.000000
0.500000 0.656250 0.000000
0.531250 0.656250 0.000000
0.562500 0.656250 0.000000
0.593750 0.656250 0.000000
0.625000 0.656250 0.000000
0.656250 0.656250 0.000000
0.687500 0.656250 0.000000
0.718750 0.656250 0.000000
0.750000 0.656250 0.000000
0.781250 0.656250 0.000000
0.812500 0.656250 0.000000
0.843750 0.656250 0.000000
0.875000 0.656250 0.000000
0.906250 0.656250 0.000000
0.937500 0.656250 0.000000
0.968750 0.656250 0.000000
1.000000 0.656250 0.000000
0.000000 0.687500 0.000000
0.031250 0.687500 0.000000
0.062500 0.687500 0.000000
0.093750 0.687500 0.000000
0.125000 0.687500 0.000000
0.156250 0.687500 0.000000
0.187500 0.687500 0.000000
0.218750 0.687500 0.000000
0.250000 0.687500 0.000000
0.281250 0.687500 0.000000
0.312500 0.687500 0.000000
0.343750 0.687500 0.000000
0.375000 0.687500 0.000000
0.406250 0.687500 0.000000
0.437500 0.687500 0.000000
0.468750 0.687500 0.000000
0.500000 0.687500 0.000000
0.531250 0.687500 0.000000
0.562500 0.687500 0.000000
0.593750 0.687500 0.000000
0.625000 0.687500 0.000000
0.656250 0.687500 0.000000
0.687500 0.687500 0.000000
0.718750 0.687500 0.000000
0.750000 0.687500 0.000000
0.781250 0.687500 0.000000
0.812500 0.687500 0.000000
0.843750 0.687500 0.000000
0.875000 0.687500 0.000000
0.906250 0.687500 0.000000
0.937500 0.687500 0.000000
0.968750 0.687500 0.000000
1.000000 0.687500 0.000000
0.000000 0.718750 0.000000
0.031250 0.718750 0.000000
0.062500 0.718750 0.000000
0.093750 0.718750 0.000000
0.125000 0.718750 0.000000
0.156250 0.718750 0.000000
0.187500 0.718750 0.000000
0.218750 0.718750 0.000000
0.250000 0.718750 0.000000
0.281250 0.718750 0.000000
0.312500 0.718750 0.000000
0.343750 0.718750 0.000000
0.375000 0.718750 0.000000
0.406250 0.718750 0.000000
0.437500 0.718750 0.000000
0.468750 0.718750 0.000000
0.500000 0.718750 0.000000
0.531250 0.718750 0.000000
0.562500 0.718750 0.000000
0.593750 0.718750 0.000000
0.625000 0.718750 0.000000
0.656250 0.718750 0.000000
0.687500 0.718750 0.000000
0.718750 0.718750 0.000000
0.750000 0.718750 0.000000
0.781250 0.718750 0.000000
0.812500 0.718750 0.000000
0.843750 0.718750 0.000000
0.875000 0.718750 0.000000
0.906250 0.718750 0.000000
0.937500 0.718750 0.000000
0.968750 0.718750 0.000000
1.000000 0.718750 0.000000
0.000000 0.750000 0.000000
0.031250 0.750000 0.000000
0.062500 0.750000 0.000000
0.093750 0.750000 0.000000
0.125000 0.750000 0.000000
0.156250 0.750000 0.000000
0.187500 0.750000 0.000000
0.218750 0.750000 0.000000
0.250000 0.750000 0.000000
0.281250 0.750000 0.000000
0.312500 0.750000 0.000000
0.343750 0.750000 0.000000
0.375000 0.750000 0.000000
0.406250 0.750000 0.000000
0.437500 0.750000 0.000000
0.468750 0.750000 0.000000
0.500000 0.750000 0.000000
0.531250 0.750000 0.000000
0.562500 0.750000 0.000000
0.593750 0.750000 0.000000
0.625000 0.750000 0.000000
0.656250 0.750000 0.000000
0.687500 0.750000 0.000000
0.718750 0.750000 0.000000
0.750000 0.750000 0.000000
0.781250 0.750000 0.000000
0.812500 0.750000 0.000000
0.843750 0.750000 0.000000
0.875000 0.750000 0.000000
0.906250 0.750000 0.000000
0.937500 0.750000 0.000000
0.968750 0.750000 0.000000
1.000000 0.750000 0.000000
0.000000 0.781250 0.000000
0.031250 0.781250 0.000000
0.062500 0.781250 0.000000
0.093750 0.781250 0.000000
0.125000 0.781250 0.000000
0.156250 0.781250 0.000000
0.187500 0.781250 0.000000
0.218750 0.781250 0.000000
0.250000 0.781250 0.000000
0.281250 0.781250 0.000000
0.312500 0.781250 0.000000
0.343750 0.781250 0.000000
0.375000 0.781250 0.000000
0.406250 0.781250 0.000000
0.437500 0.781250 0.000000
0.468750 0.781250 0.000000
0.500000 0.781250 0.000000
0.531250 0.781250 0.000000
0.562500 0.781250 0.000000
0.593750 0.781250 0.000000
0.625000 0.781250 0.000000
0.656250 0.781250 0.000000
0.687500 0.781250 0.000000
0.718750 0.781250 0.000000
0.750000 0.781250 0.000000
0.781250 0.781250 0.000000
0.812500 0.781250 0.000000
0.843750 0.781250 0.000000
0.875000 0.781250 0.000000
0.906250 0.781250 0.000000
0.937500 0.781250 0.000000
0.968750 0.781250 0.000000
1.000000 0.781250 0.000000
0.000000 0.812500 0.000000
0.031250 0.812500 0.000000
0.062500 0.812500 0.000000
0.093750 0.812500 0.000000
0.125000 0.812500 0.000000
0.156250 0.812500 0.000000
0.187500 0.812500 0.000000
0.218750 0.812500 0.000000
0.250000 0.812500 0.000000
0.281250 0.812500 0.000000
0.312500 0.812500 0.000000
0.343750 0.812500 0.000000
0.375000 0.812500 0.000000
0.406250 0.812500 0.000000
0.437500 0.812500 0.000000
0.468750 0.812500 0.000000
0.500000 0.812500 0.000000
0.531250 0.812500 0.000000
0.562500 0.812500 0.000000
0.593750 0.812500 0.000000
0.625000 0.812500 0.000000
0.656250 0.812500 0.000000
